X:1
T:Over and Over Again
T:Over and Over Again
T:Charles Hutchinson Gabriel
T:Floy Schoonmaker Armstrong, 1912
T:Public Domain Courtesy of the Cyber Hymnal™
T:Public Domain Courtesy of the Cyber Hymnal™
C:Charles Hutchinson Gabriel
Z:Public Domain
Z:Courtesy of the Cyber Hymnal™
%%score ( 1 2 ) ( 3 4 )
L:1/8
Q:1/4=140
M:6/4
K:Eb
V:1 treble 
V:2 treble 
V:3 bass 
V:4 bass 
V:1
 E2 | [EG]4 [EG]2 [EG]2 [DF]2 [EG]2 | [DA]2 [FA]2 [EA]2 [DA]6 | [Fd]3 [Ac] [GB]2 [Ac] [GB]3 [FA]2 | %4
w: 1.~How|ma- ny times has He|light- ened our cares,|O- ver and o- ver a-|
w: 2.~He|ne’er re- fus- es to|hear, tho’ we call|O- ver and o- ver a-|
w: 3.~Tho’|we may wan- der in|by- ways of sin,|O- ver and o- ver a-|
 [EG]6- [EG]4 E2 | [EG]4 [EG]2 [EG]2 [DF]2 [EG]2 | [DA]2 [FA]2 [EA]2 [DA]6 | %7
w: gain! * How|ma- ny times has He|an- swered our prayers,|
w: gain, * Sends|show’rs of bless- ings so|free- ly on all,|
w: gain, * The|heart of Je- sus will|bid us come in,|
 [Fd]3 [Ac] [GB]2 [FA] [EG]3 [DF]2 | E6- E4 E2 | [Ec]3 [Ec] [Ec]2 [Ec]2 [Ed]2 [Ec]2 | %10
w: O- ver and o- ver a-|gain! * Then|tell of His good- ness to|
w: O- ver and o- ver a-|gain; * Oh,|why are you si- lent so|
w: O- ver and o- ver a-|gain; * Then|let us be will- ing, wher-|
 [Ec]2 [EB]2 [E=A]2 [EB]4 [EB]2 | [GB]2 [FA]2 [FA]2 [FA]2 [GB]2 [FA]2 | %12
w: thee and to thine, And|tell of His mer- cies to|
w: oft- en, so long, When|tell- ing the sto- ry will|
w: ev- er the place, To|tell of His kind- ness, His|
 [FA]2 [EG]2 [E^F]2 [EG]4 E2 | [Ec]3 [Ec] [Ec]2 [Ec]2 [Ed]2 [Ec]2 | [Ec]2 [EB]2 [E=A]2 [EB]6 | %15
w: me and to mine; Re-|peat the old sto- ry of|par- don di- vine,|
w: turn them from wrong? Then|tell it, O tell it in|praise or in song,|
w: par- don, His grace, And|some day in glo- ry we’ll|look on His face,|
 =A3 G F2 [Ge] [Fd]3 [Ec]2 | B6- [AB]4 z2 ||"^Refrain" [GB]3 [Gc] [Gd]2 [Ge] [Gf]3 [Ge]2 | %18
w: O- ver and o- ver a-|gain. *||
w: O- ver and o- ver a-|gain. O-|* ver and o- ver a-|
w: O- ver and o- ver a-|gain. *||
 d6- [Ad]4 z2 | [Af]3 [Ae] [Ad]2 [Ac] [GB]3 [FA]2 | G6- [EG]4 z2 | %21
w: |||
w: gain, O-|* ver and o- ver a-|gain, O|
w: |||
 [GB]3 [Gc] [Gd]2 [Ge]2 [Ad]2 [Be]2 | [Af]2 [Ae]2 [Ac]2 [Ae]6 | [Ge]3 [GB] [FA]2 [EG] [EG]3 [DF]2 | %24
w: |||
w: what a wond- er- ful sto-|ry to tell, O-|ver and o- ver a- gain.|
w: |||
 E6- E4 |] %25
w: |
w: |
w: |
V:2
 E2 | x12 | x12 | x12 | x10 E2 | x12 | x12 | x12 | E6- E4 E2 | x12 | x12 | x12 | x10 E2 | x12 | %14
 x12 | E6 x6 | D3 EFG x6 || x12 | A3 A A2 x6 | x12 | (E3 E E2) x6 | x12 | x12 | x12 | E6- E4 |] %25
V:3
 [E,G,]2 | [E,B,]4 [E,B,]2 [E,B,]2 [A,B,]2 [G,B,]2 | [F,B,]2 [D,B,]2 [C,B,]2 [B,,B,]6 | %3
 [B,,B,]3 [B,,B,] [B,,B,]2 [B,,B,] [B,,B,]3 [B,,B,]2 | [E,B,]6- [E,B,]4 [E,G,]2 | %5
 [E,B,]4 [E,B,]2 [E,B,]2 [A,B,]2 [G,B,]2 | [F,B,]2 [D,B,]2 [C,B,]2 [B,,B,]6 | %7
 [B,,B,]3 [B,,B,] [B,,B,]2 [B,,B,] [B,,B,]3 [B,,A,]2 | [E,G,]6- [E,G,]4 [E,G,]2 | %9
 A,3 A, A,2 A,2 [A,B,]2 A,2 | [E,A,]2 [E,G,]2 [E,^F,]2 [E,G,]4 [E,G,]2 | %11
 [B,,B,]2 [B,,B,]2 [B,,B,]2 [B,,B,]2 [B,,B,]2 [B,,B,]2 | [E,B,]2 [E,B,]2 [E,=A,]2 [E,B,]4 [E,G,]2 | %13
 A,3 A, A,2 A,2 [A,B,]2 A,2 | [E,A,]2 [E,G,]2 [E,^F,]2 [E,G,]6 | %15
 [F,C]3 [F,B,] [F,=A,]2 [F,A,]2 [F,A,]2 [F,A,]2 | ([B,,-B,]6 [B,,D]4) z2 || %17
 [E,E]3 [E,E] [E,E]2 [E,B,] [E,B,]3 [E,B,]2 | ([F,B,]3 [F,B,] [B,,B,]2 [B,F]4) z2 | %19
 [B,,D]3 [B,,C] [B,,B,]2 [B,,B,] [B,,B,]3 [B,,B,]2 | ([E,B,]3 [E,B,] [E,B,]2) [E,B,]4 z2 | %21
 [E,E]3 [E,E] [E,E]2 [E,B,]2 [F,B,]2 [G,B,]2 | [A,C]2 [A,C]2 [A,E]2 [A,C]6 | %23
 B,3 [B,E] B,2 [B,,B,] [B,,B,]3 [B,,A,]2 | [E,G,]6- [E,G,]4 |] %25
V:4
 x2 | x12 | x12 | x12 | x12 | x12 | x12 | x12 | x12 | A,3 A, A,2 A,2 A,2 x2 | x12 | x12 | x12 | %13
 A,3 A, A,2 A,2 A,2 x2 | x12 | x12 | x12 || x12 | x12 | x12 | x12 | x12 | x12 | B,3 B,2 x7 | x10 |] %25

